X:1
T:You Alone
T:You Alone
T:Scott Werdebaugh, 2018
T:Scott Werdebaugh, 2018
T:© 2018 Scott Werdebaugh &amp; New Heart Music - May freely copy &amp; use for Christian worship or devotions with no alterations. All other rights reserved.
T:© 2018 Scott Werdebaugh &amp; New Heart Music - May freely copy &amp; use for Christian worship or devotions with no alterations. All other rights reserved.
C:Scott Werdebaugh, 2018
Z:© 2018 Scott Werdebaugh & New Heart Music - May freely copy & use for
Z:Christian worship or devotions with no alterations. All other rights reserved.
%%score ( 1 2 ) ( 3 4 )
L:1/8
Q:1/4=100
M:3/4
K:D
V:1 treble 
V:2 treble 
V:3 bass 
V:4 bass 
V:1
"^In quiet reflection of awe and praise" [DF]2 [DF]2 [EG]2 | [FA]4 [DF]-[DF] | [DB]2 [DB]2 [EA]2 | %3
w: 1.~On- ly one|thing I *|ask of the|
w: 2.~While some may|boast in~their *|wis- dom or|
 [DF]4 [CE]2 | [DF]4 [FA]2 | [GB]2 [GB][Gc] [Fd]2 | ([Fd]2 [Ec]2) [DB]2 | [FA]4 [FA]2 | %8
w: Lord my|God And|it’s all that I|seek * to-|day: That|
w: fame, In|strength of|might, or of their|many * rich-|es; Yet|
 [DB]4 [Ec]2 | [Fd]2- [Fd]2 [Ec]2 | [DB]2- [DB]2 [FA]2 | [DF]4 [FA]2 | [GB]2 [GB]2 [Gc]2 | %13
w: I may|dwell~in * the|house~of * the|Lord, To|be- hold the|
w: there’s one|thing * I|know, * and|this is|my on- ly|
 [Fd]4 [FA]2 | ([FA]2 [EG]2) [DF]2 | [CE]4 z2 | [DF]2- [DF]2 [FA]2 | [EG]2 [DF]2 [DB][DB] | %18
w: beau- ty|of * the|Lord,|And * to|med- i- tate in|
w: aim: To|know * You,|Lord,|Your~lov- * ing-|kind- ness, just- ice,|
 [Ec]2 [Fd]2 [Ge]2 | [Fd]4 z2 | [A,D]4 [DF]2 | [CE]2 [CF]2 [CE]2 | [A,D]4 z2 || %23
w: His courts with|praise|All the|days of my|life.|
w: and right- eous-|ness,|On earth|as in Heav-|en.|
"^Refrain" [DB]4 [DB]2 | [FA]4 [DF]2 | [A,D]2 [A,D]2 [CE]2 | [DF]4 [FA]2 | ([GB]2 [FA]2) [DF]2 | %28
w: |||||
w: |||||
 [CE]4 [CE]2 | [DF]4 [FA]2 | [EG]4 [DF]2 | [DB]4 [Ec]2 | [Fd]4 [FA]2 | (B2 d2) [Ec]2 | [Fd]4 z2 | %35
w: |||||||
w: |||||||
 [Fd]4 [Ec]2 | [DB]4 [FA]2 | [DF][FA] [GB]4 | [FA]4 [EG]2 | [FA]4 [DF]2 | [CE]4 [A,D]2 | %41
w: ||||||
w: ||||||
 [DB]4 (3[Ec][Fd][Gd] | [Ge]4 [Gd]2 | [Fd]6 |] %44
w: |||
w: |||
V:2
 x6 | x6 | x6 | x6 | x6 | x6 | x6 | x6 | x6 | x6 | x6 | x6 | x6 | x6 | x6 | x6 | x6 | x6 | x6 | %19
 x6 | x6 | x6 | x6 || x6 | x6 | x6 | x6 | x6 | x6 | x6 | x6 | x6 | x6 | G4 x2 | x6 | x6 | x6 | x6 | %38
 x6 | x6 | x6 | x6 | x6 | x6 |] %44
V:3
 [D,A,]2 [D,A,]2 [A,C]2 | [D,D]4 [D,A,]-[D,A,] | [G,,G,]2 [G,,G,]2 [A,C]2 | [D,A,]4 [A,,A,]2 | %4
w: ||||
 [D,A,]4 [D,D]2 | [G,D]2 [G,D][A,E] [A,D]2 | ([D,A,]2 [A,,A,]2) [G,,G,]2 | [D,D]4 [D,D]2 | %8
w: ||||
 [G,D]4 [A,,A,]2 | [D,A,]2- [D,A,]2 [A,,A,]2 | [G,,G,]2- [G,,G,]2 [D,D]2 | [D,A,]4 [D,D]2 | %12
w: ||||
 [G,D]2 [G,D]2 [A,E]2 | [A,D]4 [D,D]2 | ([D,D]2 [A,C]2) [D,A,]2 | [A,,A,]4 z2 | %16
w: ||||
 [D,A,]2- [D,A,]2 [D,D]2 | [A,C]2 [D,A,]2 [G,,G,][G,,G,] | [A,,A,]2 [D,A,]2 [A,C]2 | [D,A,]4 z2 | %20
w: ||||
 [D,F,]4 [D,A,]2 | [A,,A,]2 [F,A,]2 (A,G,) | [D,F,]4 z2 || [G,,G,]4 [G,,G,]2 | [D,D]4 [D,A,]2 | %25
w: |||Lord, I|want to|
 [D,F,]2 [D,F,]2 [A,,A,]2 | [D,A,]4 [D,D]2 | D4 [D,A,]2 | [A,,A,]4 [A,,A,]2 | [D,A,]4 [D,D]2 | %30
w: dwell in Your|pres- ence|all my|days, And|when I|
 [A,C]4 [D,A,]2 | [G,,G,]4 [A,,A,]2 | [D,A,]4 [D,D]2 | (D2 B,2) [A,,A,]2 | [D,A,]4 z2 | %35
w: die, I|want to|dwell with|You * on|high;|
 [D,A,]4 [A,,A,]2 | [G,,G,]4 [D,D]2 | [D,A,][D,D] [G,D]4 | [D,D]4 [A,C]2 | [D,D]4 [D,A,]2 | %40
w: In my|wor- ship|may I fo-|cus on|You a-|
 [A,,A,]4 [D,F,]2 | [G,,G,]4 (3[A,,A,][D,A,][G,B,] | [A,C]4 [G,B,]2 | [D,A,]6 |] %44
w: lone, Both|now and then, for-|ev- er-|more!|
V:4
 x6 | x6 | x6 | x6 | x6 | x6 | x6 | x6 | x6 | x6 | x6 | x6 | x6 | x6 | x6 | x6 | x6 | x6 | x6 | %19
 x6 | x6 | x4 A,,2 | x6 || x6 | x6 | x6 | x6 | (G,2 D,2) x2 | x6 | x6 | x6 | x6 | x6 | G,4 x2 | %34
 x6 | x6 | x6 | x6 | x6 | x6 | x6 | x6 | x6 | x6 |] %44

